flaticon/holiday/frankenstein.svg

<svg xmlns="http://www.w3.org/2000/svg" width="32" height="32" viewBox="0 0 24 24">
    <path d="M8.667969 11.277344C9.945312 11.277344 11.0625 10.40625 11.355469 9.128906 11.382812 9.015625 11.359375 8.898438 11.292969 8.804688 11.230469 8.710938 11.128906 8.648438 11.015625 8.632812L6.355469 8.003906C6.242188 7.988281 6.128906 8.019531 6.039062 8.09375 5.953125 8.167969 5.898438 8.273438 5.894531 8.386719 5.832031 9.828125 6.859375 11.058594 8.289062 11.253906 8.414062 11.269531 8.542969 11.277344 8.667969 11.277344zM6.738281 8.875L10.414062 9.375C10.050781 10.117188 9.253906 10.5625 8.394531 10.445312 7.542969 10.332031 6.890625 9.6875 6.738281 8.875zM15.417969 10.808594C15.523438 10.808594 15.628906 10.804688 15.734375 10.792969 17.167969 10.632812 18.226562 9.425781 18.195312 7.984375 18.191406 7.871094 18.140625 7.761719 18.054688 7.6875 17.96875 7.613281 17.855469 7.578125 17.742188 7.589844L13.070312 8.113281C12.957031 8.125 12.851562 8.183594 12.785156 8.277344 12.71875 8.371094 12.695312 8.484375 12.714844 8.597656 12.984375 9.90625 14.117188 10.808594 15.417969 10.808594zM17.339844 8.453125C17.167969 9.261719 16.503906 9.886719 15.644531 9.984375 14.792969 10.082031 14 9.617188 13.65625 8.867188zM19.503906 11.953125L18.996094 11.695312C19.007812 11.34375 18.980469 10.980469 18.90625 10.609375 18.863281 10.386719 18.648438 10.242188 18.429688 10.289062 18.207031 10.335938 18.066406 10.550781 18.109375 10.769531 18.144531 10.941406 18.164062 11.117188 18.175781 11.289062L17.875 11.136719C17.675781 11.039062 17.429688 11.121094 17.332031 11.320312 17.230469 11.519531 17.3125 11.765625 17.511719 11.867188L18.125 12.171875C18.078125 12.449219 17.992188 12.71875 17.878906 12.96875L17.46875 12.765625C17.269531 12.667969 17.023438 12.746094 16.921875 12.949219 16.824219 13.148438 16.90625 13.394531 17.105469 13.492188L17.445312 13.664062C17.28125 13.863281 17.09375 14.039062 16.886719 14.1875L16.355469 13.65625C16.195312 13.496094 15.9375 13.496094 15.78125 13.65625 15.621094 13.8125 15.621094 14.070312 15.78125 14.230469L16.144531 14.597656C15.964844 14.667969 15.777344 14.726562 15.578125 14.765625 15.359375 14.808594 15.21875 15.023438 15.261719 15.242188 15.300781 15.4375 15.46875 15.570312 15.660156 15.570312 15.6875 15.570312 15.714844 15.566406 15.742188 15.5625 16.105469 15.488281 16.445312 15.367188 16.761719 15.214844L17.40625 15.859375C17.484375 15.9375 17.589844 15.976562 17.695312 15.976562 17.796875 15.976562 17.902344 15.9375 17.980469 15.859375 18.140625 15.699219 18.140625 15.441406 17.980469 15.28125L17.46875 14.769531C17.742188 14.554688 17.984375 14.308594 18.1875 14.035156L18.730469 14.304688C18.789062 14.335938 18.851562 14.347656 18.914062 14.347656 19.0625 14.347656 19.207031 14.265625 19.277344 14.125 19.378906 13.921875 19.296875 13.679688 19.097656 13.578125L18.605469 13.332031C18.722656 13.085938 18.8125 12.824219 18.878906 12.550781L19.140625 12.679688C19.199219 12.707031 19.257812 12.722656 19.320312 12.722656 19.46875 12.722656 19.613281 12.640625 19.683594 12.496094 19.785156 12.296875 19.703125 12.050781 19.503906 11.953125zM15.710938 16.316406C15.484375 16.15625 15.195312 16.109375 14.933594 16.199219L11.90625 17.203125 8.699219 17.5625C8.261719 17.609375 7.933594 17.980469 7.933594 18.417969L7.933594 19.179688C7.933594 19.65625 8.320312 20.042969 8.796875 20.042969L11.960938 20.046875 15.015625 20.726562C15.078125 20.738281 15.144531 20.746094 15.207031 20.746094 15.402344 20.746094 15.589844 20.679688 15.746094 20.554688 15.949219 20.390625 16.066406 20.144531 16.066406 19.882812L16.066406 17.015625C16.066406 16.738281 15.933594 16.476562 15.710938 16.316406zM15.253906 19.882812C15.253906 19.898438 15.246094 19.910156 15.234375 19.921875 15.222656 19.929688 15.210938 19.933594 15.195312 19.929688L12.136719 19.25C12.074219 19.238281 12.011719 19.230469 11.949219 19.230469L8.796875 19.230469C8.769531 19.230469 8.746094 19.207031 8.746094 19.179688L8.746094 18.417969C8.746094 18.394531 8.765625 18.371094 8.789062 18.371094L11.996094 18.011719C12.058594 18.007812 12.121094 17.992188 12.175781 17.972656L15.1875 16.96875C15.191406 16.96875 15.199219 16.964844 15.203125 16.964844 15.214844 16.964844 15.222656 16.96875 15.234375 16.976562 15.253906 16.992188 15.253906 17.011719 15.253906 17.015625zM10.175781 13.941406L9.105469 13.941406C9.082031 13.941406 9.0625 13.933594 9.046875 13.910156 9.035156 13.890625 9.035156 13.867188 9.046875 13.847656L9.515625 12.90625C9.617188 12.703125 9.535156 12.460938 9.335938 12.359375 9.132812 12.257812 8.890625 12.339844 8.789062 12.539062L8.316406 13.480469C8.179688 13.757812 8.195312 14.078125 8.355469 14.339844 8.519531 14.601562 8.796875 14.757812 9.105469 14.757812L10.175781 14.757812C10.195312 14.757812 10.210938 14.761719 10.222656 14.777344 10.601562 15.152344 11.097656 15.34375 11.59375 15.34375 12.089844 15.34375 12.585938 15.152344 12.960938 14.777344 12.976562 14.761719 12.992188 14.757812 13.007812 14.757812L14.082031 14.757812C14.386719 14.757812 14.667969 14.601562 14.828125 14.339844 14.992188 14.078125 15.007812 13.757812 14.867188 13.480469L14.398438 12.539062C14.296875 12.339844 14.054688 12.257812 13.851562 12.359375 13.652344 12.460938 13.570312 12.703125 13.671875 12.90625L14.140625 13.84375C14.152344 13.867188 14.152344 13.890625 14.136719 13.910156 14.125 13.933594 14.105469 13.941406 14.082031 13.941406L13.007812 13.941406C12.777344 13.941406 12.550781 14.035156 12.386719 14.199219 11.949219 14.636719 11.238281 14.636719 10.800781 14.199219 10.636719 14.039062 10.410156 13.941406 10.175781 13.941406zM5.085938 2.441406C5.085938 2.664062 4.902344 2.847656 4.679688 2.847656 4.453125 2.847656 4.269531 2.664062 4.269531 2.441406 4.269531 2.214844 4.453125 2.035156 4.679688 2.035156 4.902344 2.035156 5.085938 2.214844 5.085938 2.441406zM5.898438 1.628906C5.898438 1.851562 5.714844 2.035156 5.492188 2.035156 5.265625 2.035156 5.085938 1.851562 5.085938 1.628906 5.085938 1.402344 5.265625 1.21875 5.492188 1.21875 5.714844 1.21875 5.898438 1.402344 5.898438 1.628906zM6.710938 2.441406C6.710938 2.664062 6.53125 2.847656 6.304688 2.847656 6.082031 2.847656 5.898438 2.664062 5.898438 2.441406 5.898438 2.214844 6.082031 2.035156 6.304688 2.035156 6.53125 2.035156 6.710938 2.214844 6.710938 2.441406zM7.527344 1.628906C7.527344 1.851562 7.34375 2.035156 7.117188 2.035156 6.894531 2.035156 6.710938 1.851562 6.710938 1.628906 6.710938 1.402344 6.894531 1.21875 7.117188 1.21875 7.34375 1.21875 7.527344 1.402344 7.527344 1.628906zM8.339844 2.441406C8.339844 2.664062 8.15625 2.847656 7.933594 2.847656 7.707031 2.847656 7.527344 2.664062 7.527344 2.441406 7.527344 2.214844 7.707031 2.035156 7.933594 2.035156 8.15625 2.035156 8.339844 2.214844 8.339844 2.441406zM9.152344 1.628906C9.152344 1.851562 8.96875 2.035156 8.746094 2.035156 8.519531 2.035156 8.339844 1.851562 8.339844 1.628906 8.339844 1.402344 8.519531 1.21875 8.746094 1.21875 8.96875 1.21875 9.152344 1.402344 9.152344 1.628906zM9.964844 2.441406C9.964844 2.664062 9.785156 2.847656 9.558594 2.847656 9.335938 2.847656 9.152344 2.664062 9.152344 2.441406 9.152344 2.214844 9.335938 2.035156 9.558594 2.035156 9.785156 2.035156 9.964844 2.214844 9.964844 2.441406zM10.78125 1.628906C10.78125 1.851562 10.597656 2.035156 10.371094 2.035156 10.148438 2.035156 9.964844 1.851562 9.964844 1.628906 9.964844 1.402344 10.148438 1.21875 10.371094 1.21875 10.597656 1.21875 10.78125 1.402344 10.78125 1.628906zM11.59375 2.441406C11.59375 2.664062 11.410156 2.847656 11.1875 2.847656 10.960938 2.847656 10.78125 2.664062 10.78125 2.441406 10.78125 2.214844 10.960938 2.035156 11.1875 2.035156 11.410156 2.035156 11.59375 2.214844 11.59375 2.441406zM12.40625 1.628906C12.40625 1.851562 12.226562 2.035156 12 2.035156 11.773438 2.035156 11.59375 1.851562 11.59375 1.628906 11.59375 1.402344 11.773438 1.21875 12 1.21875 12.226562 1.21875 12.40625 1.402344 12.40625 1.628906zM13.21875 2.441406C13.21875 2.664062 13.039062 2.847656 12.8125 2.847656 12.589844 2.847656 12.40625 2.664062 12.40625 2.441406 12.40625 2.214844 12.589844 2.035156 12.8125 2.035156 13.039062 2.035156 13.21875 2.214844 13.21875 2.441406zM14.035156 1.628906C14.035156 1.851562 13.851562 2.035156 13.628906 2.035156 13.402344 2.035156 13.21875 1.851562 13.21875 1.628906 13.21875 1.402344 13.402344 1.21875 13.628906 1.21875 13.851562 1.21875 14.035156 1.402344 14.035156 1.628906zM14.847656 2.441406C14.847656 2.664062 14.664062 2.847656 14.441406 2.847656 14.214844 2.847656 14.035156 2.664062 14.035156 2.441406 14.035156 2.214844 14.214844 2.035156 14.441406 2.035156 14.664062 2.035156 14.847656 2.214844 14.847656 2.441406zM15.660156 1.628906C15.660156 1.851562 15.480469 2.035156 15.253906 2.035156 15.03125 2.035156 14.847656 1.851562 14.847656 1.628906 14.847656 1.402344 15.03125 1.21875 15.253906 1.21875 15.480469 1.21875 15.660156 1.402344 15.660156 1.628906zM16.472656 2.441406C16.472656 2.664062 16.292969 2.847656 16.066406 2.847656 15.84375 2.847656 15.660156 2.664062 15.660156 2.441406 15.660156 2.214844 15.84375 2.035156 16.066406 2.035156 16.292969 2.035156 16.472656 2.214844 16.472656 2.441406zM17.289062 1.628906C17.289062 1.851562 17.105469 2.035156 16.882812 2.035156 16.65625 2.035156 16.472656 1.851562 16.472656 1.628906 16.472656 1.402344 16.65625 1.21875 16.882812 1.21875 17.105469 1.21875 17.289062 1.402344 17.289062 1.628906zM18.101562 2.441406C18.101562 2.664062 17.917969 2.847656 17.695312 2.847656 17.46875 2.847656 17.289062 2.664062 17.289062 2.441406 17.289062 2.214844 17.46875 2.035156 17.695312 2.035156 17.917969 2.035156 18.101562 2.214844 18.101562 2.441406zM18.914062 1.628906C18.914062 1.851562 18.734375 2.035156 18.507812 2.035156 18.285156 2.035156 18.101562 1.851562 18.101562 1.628906 18.101562 1.402344 18.285156 1.21875 18.507812 1.21875 18.734375 1.21875 18.914062 1.402344 18.914062 1.628906zM19.730469 2.441406C19.730469 2.664062 19.546875 2.847656 19.320312 2.847656 19.097656 2.847656 18.914062 2.664062 18.914062 2.441406 18.914062 2.214844 19.097656 2.035156 19.320312 2.035156 19.546875 2.035156 19.730469 2.214844 19.730469 2.441406zM19.730469 2.441406"/>
    <path d="M 22.578125 2.441406 C 21.902344 2.441406 21.355469 2.988281 21.355469 3.660156 L 20.542969 3.660156 L 20.542969 1.628906 C 20.542969 0.730469 19.8125 0 18.914062 0 L 5.125 0 C 4.207031 0 3.457031 0.75 3.457031 1.667969 L 3.457031 3.660156 L 2.644531 3.660156 C 2.644531 2.988281 2.097656 2.441406 1.421875 2.441406 C 0.75 2.441406 0.203125 2.988281 0.203125 3.660156 L 0.203125 6.101562 C 0.203125 6.773438 0.75 7.320312 1.421875 7.320312 C 2.097656 7.320312 2.644531 6.773438 2.644531 6.101562 L 3.457031 6.101562 L 3.457031 17.296875 C 3.457031 18.574219 4.015625 19.78125 4.992188 20.605469 L 7.792969 22.972656 C 8.574219 23.636719 9.566406 24 10.589844 24 L 12.746094 24 C 13.675781 24 14.5625 23.710938 15.3125 23.160156 L 18.769531 20.625 C 19.878906 19.8125 20.542969 18.503906 20.542969 17.128906 L 20.542969 6.101562 L 21.355469 6.101562 C 21.355469 6.773438 21.902344 7.320312 22.578125 7.320312 C 23.25 7.320312 23.796875 6.773438 23.796875 6.101562 L 23.796875 3.660156 C 23.796875 2.988281 23.25 2.441406 22.578125 2.441406 Z M 4.269531 2.441406 L 4.269531 1.667969 C 4.269531 1.46875 4.339844 1.289062 4.453125 1.144531 C 4.519531 1.1875 4.59375 1.21875 4.679688 1.21875 C 4.902344 1.21875 5.082031 1.039062 5.082031 0.816406 C 5.097656 0.816406 5.113281 0.8125 5.125 0.8125 L 5.898438 0.8125 C 5.898438 1.039062 6.082031 1.21875 6.304688 1.21875 C 6.53125 1.21875 6.710938 1.039062 6.710938 0.8125 L 7.527344 0.8125 C 7.527344 1.039062 7.707031 1.21875 7.933594 1.21875 C 8.15625 1.21875 8.339844 1.039062 8.339844 0.8125 L 9.152344 0.8125 C 9.152344 1.039062 9.335938 1.21875 9.558594 1.21875 C 9.785156 1.21875 9.964844 1.039062 9.964844 0.8125 L 10.78125 0.8125 C 10.78125 1.039062 10.960938 1.21875 11.1875 1.21875 C 11.410156 1.21875 11.59375 1.039062 11.59375 0.8125 L 12.40625 0.8125 C 12.40625 1.039062 12.589844 1.21875 12.8125 1.21875 C 13.039062 1.21875 13.21875 1.039062 13.21875 0.8125 L 14.035156 0.8125 C 14.035156 1.039062 14.214844 1.21875 14.441406 1.21875 C 14.664062 1.21875 14.847656 1.039062 14.847656 0.8125 L 15.660156 0.8125 C 15.660156 1.039062 15.84375 1.21875 16.066406 1.21875 C 16.292969 1.21875 16.472656 1.039062 16.472656 0.8125 L 17.289062 0.8125 C 17.289062 1.039062 17.46875 1.21875 17.695312 1.21875 C 17.917969 1.21875 18.101562 1.039062 18.101562 0.8125 L 18.914062 0.8125 C 18.914062 1.039062 19.097656 1.21875 19.320312 1.21875 C 19.414062 1.21875 19.492188 1.183594 19.558594 1.136719 C 19.664062 1.273438 19.730469 1.441406 19.730469 1.628906 L 19.730469 4.472656 L 18.507812 4.472656 L 18.507812 3.660156 C 18.507812 3.4375 18.328125 3.253906 18.101562 3.253906 C 17.875 3.253906 17.695312 3.4375 17.695312 3.660156 L 17.695312 4.472656 L 16.066406 4.472656 L 16.066406 3.660156 C 16.066406 3.4375 15.886719 3.253906 15.660156 3.253906 C 15.4375 3.253906 15.253906 3.4375 15.253906 3.660156 L 15.253906 4.472656 L 13.628906 4.472656 L 13.628906 3.660156 C 13.628906 3.4375 13.445312 3.253906 13.21875 3.253906 C 12.996094 3.253906 12.8125 3.4375 12.8125 3.660156 L 12.8125 4.472656 L 11.1875 4.472656 L 11.1875 3.660156 C 11.1875 3.4375 11.003906 3.253906 10.78125 3.253906 C 10.554688 3.253906 10.371094 3.4375 10.371094 3.660156 L 10.371094 4.472656 L 8.746094 4.472656 L 8.746094 3.660156 C 8.746094 3.4375 8.5625 3.253906 8.339844 3.253906 C 8.113281 3.253906 7.933594 3.4375 7.933594 3.660156 L 7.933594 4.472656 L 6.304688 4.472656 L 6.304688 3.660156 C 6.304688 3.4375 6.125 3.253906 5.898438 3.253906 C 5.671875 3.253906 5.492188 3.4375 5.492188 3.660156 L 5.492188 4.472656 L 4.269531 4.472656 Z M 1.421875 6.507812 C 1.199219 6.507812 1.015625 6.328125 1.015625 6.101562 L 1.015625 3.660156 C 1.015625 3.4375 1.199219 3.253906 1.421875 3.253906 C 1.648438 3.253906 1.832031 3.4375 1.832031 3.660156 L 1.832031 6.101562 C 1.832031 6.328125 1.648438 6.507812 1.421875 6.507812 Z M 2.644531 5.289062 L 2.644531 4.472656 L 3.457031 4.472656 L 3.457031 5.289062 Z M 19.730469 17.128906 C 19.730469 18.246094 19.191406 19.308594 18.289062 19.96875 L 14.832031 22.503906 C 14.222656 22.949219 13.5 23.1875 12.746094 23.1875 L 10.589844 23.1875 C 9.757812 23.1875 8.953125 22.890625 8.316406 22.351562 L 5.519531 19.984375 C 4.726562 19.316406 4.269531 18.335938 4.269531 17.296875 L 4.269531 5.289062 L 5.492188 5.289062 L 5.492188 6.101562 C 5.492188 6.328125 5.671875 6.507812 5.898438 6.507812 C 6.125 6.507812 6.304688 6.328125 6.304688 6.101562 L 6.304688 5.289062 L 7.933594 5.289062 L 7.933594 6.101562 C 7.933594 6.328125 8.113281 6.507812 8.339844 6.507812 C 8.5625 6.507812 8.746094 6.328125 8.746094 6.101562 L 8.746094 5.289062 L 10.371094 5.289062 L 10.371094 6.101562 C 10.371094 6.328125 10.554688 6.507812 10.78125 6.507812 C 11.003906 6.507812 11.1875 6.328125 11.1875 6.101562 L 11.1875 5.289062 L 12.8125 5.289062 L 12.8125 6.101562 C 12.8125 6.328125 12.996094 6.507812 13.21875 6.507812 C 13.445312 6.507812 13.628906 6.328125 13.628906 6.101562 L 13.628906 5.289062 L 15.253906 5.289062 L 15.253906 6.101562 C 15.253906 6.328125 15.4375 6.507812 15.660156 6.507812 C 15.886719 6.507812 16.066406 6.328125 16.066406 6.101562 L 16.066406 5.289062 L 17.695312 5.289062 L 17.695312 6.101562 C 17.695312 6.328125 17.875 6.507812 18.101562 6.507812 C 18.328125 6.507812 18.507812 6.328125 18.507812 6.101562 L 18.507812 5.289062 L 19.730469 5.289062 Z M 20.542969 5.289062 L 20.542969 4.472656 L 21.355469 4.472656 L 21.355469 5.289062 Z M 22.984375 6.101562 C 22.984375 6.328125 22.800781 6.507812 22.578125 6.507812 C 22.351562 6.507812 22.167969 6.328125 22.167969 6.101562 L 22.167969 3.660156 C 22.167969 3.4375 22.351562 3.253906 22.578125 3.253906 C 22.800781 3.253906 22.984375 3.4375 22.984375 3.660156 Z M 22.984375 6.101562"/>
</svg>

<svg xmlns="http://www.w3.org/2000/svg" width="32" height="32" viewBox="0 0 24 24">
    <path d="M8.668 11.277a2.75 2.75 0 0 0 2.687-2.148.397.397 0 0 0-.062-.324.398.398 0 0 0-.277-.172l-4.66-.63a.406.406 0 0 0-.461.384 2.757 2.757 0 0 0 2.773 2.89zm-1.93-2.402l3.676.5a1.942 1.942 0 0 1-2.02 1.07 1.942 1.942 0 0 1-1.656-1.57zm0 0M15.418 10.809a2.753 2.753 0 0 0 2.777-2.824.413.413 0 0 0-.14-.297.413.413 0 0 0-.313-.098l-4.672.523a.4.4 0 0 0-.285.164.423.423 0 0 0-.07.32 2.753 2.753 0 0 0 2.703 2.212zm1.922-2.356a1.945 1.945 0 0 1-1.695 1.531 1.94 1.94 0 0 1-1.989-1.117zm0 0M19.504 11.953l-.508-.258a4.724 4.724 0 0 0-.09-1.086.402.402 0 0 0-.476-.32.41.41 0 0 0-.32.48c.035.172.054.348.066.52l-.301-.152a.408.408 0 0 0-.363.73l.613.305a3.255 3.255 0 0 1-.246.797l-.41-.203a.41.41 0 0 0-.547.183.408.408 0 0 0 .183.543l.34.172c-.164.2-.351.375-.558.524l-.532-.532a.403.403 0 0 0-.574 0 .403.403 0 0 0 0 .574l.364.368c-.18.07-.368.129-.567.168a.405.405 0 0 0-.316.476.405.405 0 0 0 .48.32 4.358 4.358 0 0 0 1.02-.347l.644.644a.408.408 0 0 0 .574-.578l-.511-.511c.273-.215.515-.461.718-.735l.543.27a.407.407 0 0 0 .367-.727l-.492-.246a4.02 4.02 0 0 0 .274-.781l.262.129a.403.403 0 0 0 .543-.184.403.403 0 0 0-.18-.543zm0 0M15.71 16.316a.863.863 0 0 0-.776-.117l-3.028 1.004-3.207.36a.859.859 0 0 0-.765.855v.762c0 .476.386.863.863.863l3.164.004 3.055.68a.858.858 0 0 0 .73-.172.862.862 0 0 0 .32-.672v-2.867a.862.862 0 0 0-.355-.7zm-.456 3.567c0 .015-.008.027-.02.039-.011.008-.023.012-.039.008l-3.058-.68a1.018 1.018 0 0 0-.188-.02H8.797a.052.052 0 0 1-.05-.05v-.762c0-.023.019-.047.042-.047l3.207-.36a.669.669 0 0 0 .18-.038l3.011-1.004.016-.004c.012 0 .02.004.031.012.02.015.02.035.02.039zm0 0M10.176 13.941h-1.07a.065.065 0 0 1-.06-.03.06.06 0 0 1 0-.063l.47-.942a.407.407 0 0 0-.727-.367l-.473.941a.886.886 0 0 0 .04.86.878.878 0 0 0 .75.418h1.07c.02 0 .035.004.047.02.379.374.875.566 1.37.566.497 0 .993-.192 1.368-.567a.062.062 0 0 1 .047-.02h1.074a.871.871 0 0 0 .746-.417.866.866 0 0 0 .04-.86l-.47-.94a.407.407 0 0 0-.726.366l.469.938c.011.023.011.047-.004.066-.012.024-.032.031-.055.031h-1.074a.885.885 0 0 0-.621.258 1.122 1.122 0 0 1-1.586 0 .904.904 0 0 0-.625-.258zm0 0M5.086 2.441a.408.408 0 0 1-.816 0c0-.226.183-.406.41-.406.222 0 .406.18.406.406zm0 0M5.898 1.629a.406.406 0 1 1-.813 0 .407.407 0 1 1 .813 0zm0 0M6.71 2.441a.406.406 0 1 1-.81.001.406.406 0 0 1 .81 0zm0 0M7.527 1.629a.408.408 0 1 1-.41-.41.41.41 0 0 1 .41.41zm0 0M8.34 2.441a.406.406 0 1 1-.813 0 .406.406 0 0 1 .813 0zm0 0M9.152 1.629a.406.406 0 1 1-.813 0 .407.407 0 1 1 .813 0zm0 0M9.965 2.441a.406.406 0 1 1-.812.001.406.406 0 0 1 .812 0zm0 0M10.781 1.629a.408.408 0 1 1-.41-.41.41.41 0 0 1 .41.41zm0 0M11.594 2.441a.406.406 0 1 1-.813 0 .406.406 0 0 1 .813 0zm0 0M12.406 1.629a.406.406 0 1 1-.812 0 .407.407 0 1 1 .812 0zm0 0M13.219 2.441a.406.406 0 1 1-.812.001.406.406 0 0 1 .812 0zm0 0M14.035 1.629a.408.408 0 1 1-.817-.005.408.408 0 0 1 .817.005zm0 0M14.848 2.441a.406.406 0 1 1-.813 0 .406.406 0 0 1 .813 0zm0 0M15.66 1.629a.406.406 0 1 1-.812 0 .407.407 0 0 1 .813 0zm0 0M16.473 2.441a.406.406 0 1 1-.812.001.406.406 0 0 1 .812 0zm0 0M17.29 1.629a.408.408 0 1 1-.818-.004.408.408 0 0 1 .817.004zm0 0M18.102 2.441a.406.406 0 1 1-.813 0 .406.406 0 0 1 .813 0zm0 0M18.914 1.629a.406.406 0 1 1-.812 0 .407.407 0 0 1 .813 0zm0 0M19.73 2.441a.408.408 0 0 1-.816 0c0-.226.184-.406.406-.406.227 0 .41.18.41.406zm0 0"/>
    <path d="M22.578 2.441c-.676 0-1.223.547-1.223 1.22h-.812V1.628A1.63 1.63 0 0 0 18.914 0H5.125c-.918 0-1.668.75-1.668 1.668V3.66h-.812a1.221 1.221 0 0 0-2.442 0v2.442a1.22 1.22 0 0 0 2.442 0h.812v11.195c0 1.277.559 2.484 1.535 3.308l2.801 2.368A4.32 4.32 0 0 0 10.59 24h2.156c.93 0 1.816-.29 2.566-.84l3.458-2.535a4.352 4.352 0 0 0 1.773-3.496V6.102h.812a1.221 1.221 0 0 0 2.442 0V3.66a1.22 1.22 0 0 0-1.219-1.219zm-18.308 0v-.773c0-.2.07-.379.183-.523.067.042.14.074.227.074.222 0 .402-.18.402-.403.016 0 .031-.003.043-.003h.773a.406.406 0 1 0 .813 0h.816a.406.406 0 1 0 .812 0h.813a.406.406 0 1 0 .813 0h.816a.406.406 0 1 0 .813 0h.812a.406.406 0 1 0 .813 0h.816a.406.406 0 1 0 .813 0h.812a.406.406 0 1 0 .813 0h.816a.406.406 0 1 0 .813 0h.812c0 .226.184.406.406.406a.407.407 0 0 0 .239-.082.8.8 0 0 1 .171.492v2.844h-1.222V3.66a.406.406 0 1 0-.813 0v.813h-1.629V3.66a.406.406 0 1 0-.812 0v.813h-1.625V3.66a.408.408 0 0 0-.816 0v.813h-1.626V3.66a.408.408 0 0 0-.816 0v.813H8.746V3.66a.406.406 0 1 0-.812 0v.813h-1.63V3.66a.406.406 0 1 0-.812 0v.813H4.27zM1.422 6.508a.406.406 0 0 1-.406-.406V3.66a.408.408 0 0 1 .816 0v2.442a.407.407 0 0 1-.41.406zm1.223-1.219v-.816h.812v.816zM19.73 17.13c0 1.117-.539 2.18-1.44 2.84l-3.458 2.535a3.518 3.518 0 0 1-2.086.683H10.59a3.519 3.519 0 0 1-2.274-.835L5.52 19.984a3.509 3.509 0 0 1-1.25-2.687V5.289h1.222v.813c0 .226.18.406.406.406.227 0 .407-.18.407-.406v-.813h1.629v.813a.406.406 0 1 0 .812 0v-.813h1.625v.813c0 .226.184.406.41.406.223 0 .406-.18.406-.406v-.813h1.626v.813c0 .226.183.406.406.406.226 0 .41-.18.41-.406v-.813h1.625v.813a.406.406 0 1 0 .812 0v-.813h1.63v.813c0 .226.179.406.406.406.226 0 .406-.18.406-.406v-.813h1.222zm.813-11.84v-.816h.812v.816zm2.441.813a.406.406 0 0 1-.406.406.407.407 0 0 1-.41-.406V3.66a.408.408 0 0 1 .816 0zm0 0"/>
</svg>
